imagestudio/img/cover/Group.svg

<svg width="33" height="26" viewBox="0 0 33 26" fill="none" xmlns="http://www.w3.org/2000/svg">
<path d="M6.43517 10.7556C7.39283 10.7556 8.16917 9.97926 8.16917 9.0216C8.16917 8.06394 7.39283 7.2876 6.43517 7.2876C5.47751 7.2876 4.70117 8.06394 4.70117 9.0216C4.70117 9.97926 5.47751 10.7556 6.43517 10.7556Z" fill="#CA9E55"/>
<path d="M28.2636 2.93569H24.8296L24.5236 2.28969C23.9116 1.06569 22.6876 0.283691 21.3276 0.283691H11.7056C10.3456 0.283691 9.08761 1.06569 8.50961 2.28969L8.20361 2.93569H4.73561C2.32161 2.93569 0.349609 4.90769 0.349609 7.32169V21.2617C0.349609 23.6757 2.32161 25.6477 4.73561 25.6477H28.2296C30.6436 25.6477 32.6156 23.6757 32.6156 21.2617V7.32169C32.6496 4.90769 30.6776 2.93569 28.2636 2.93569ZM30.2696 21.2957C30.2696 22.4177 29.3516 23.3357 28.2296 23.3357H4.73561C3.61361 23.3357 2.69561 22.4177 2.69561 21.2957V7.35569C2.69561 6.23369 3.61361 5.31569 4.73561 5.31569H8.88361C9.32561 5.31569 9.73361 5.04369 9.93761 4.66969L10.5836 3.37769C10.7876 2.96969 11.1956 2.69769 11.6716 2.69769H21.2936C21.7696 2.69769 22.1776 2.96969 22.3816 3.37769L23.0276 4.66969C23.2316 5.07769 23.6396 5.31569 24.0816 5.31569H28.2296C29.3516 5.31569 30.2696 6.23369 30.2696 7.35569V21.2957V21.2957Z" fill="#CA9E55"/>
<path d="M16.4996 6.23389C12.4876 6.23389 9.22363 9.49789 9.22363 13.5099C9.22363 17.5219 12.4876 20.8199 16.4996 20.8199C20.5116 20.8199 23.7756 17.5559 23.7756 13.5439C23.7756 9.53189 20.5116 6.23389 16.4996 6.23389ZM16.4996 18.4399C13.7796 18.4399 11.5696 16.2299 11.5696 13.5099C11.5696 10.7899 13.7796 8.61389 16.4996 8.61389C19.2196 8.61389 21.4296 10.8239 21.4296 13.5439C21.4296 16.2639 19.2196 18.4399 16.4996 18.4399Z" fill="#CA9E55"/>
</svg>

<svg width="33" height="26" fill="none" xmlns="http://www.w3.org/2000/svg"><path d="M6.435 10.756a1.734 1.734 0 100-3.468 1.734 1.734 0 000 3.468z" fill="#CA9E55"/><path d="M28.264 2.936H24.83l-.306-.646C23.912 1.066 22.688.284 21.328.284h-9.622A3.54 3.54 0 008.51 2.29l-.306.646H4.736A4.397 4.397 0 00.35 7.322v13.94a4.397 4.397 0 004.386 4.386H28.23a4.397 4.397 0 004.386-4.386V7.322c.034-2.414-1.938-4.386-4.352-4.386zm2.006 18.36c0 1.122-.918 2.04-2.04 2.04H4.736a2.046 2.046 0 01-2.04-2.04V7.356c0-1.122.918-2.04 2.04-2.04h4.148c.442 0 .85-.272 1.054-.646l.646-1.292c.204-.408.612-.68 1.088-.68h9.622c.476 0 .884.272 1.088.68l.646 1.292c.204.408.612.646 1.054.646h4.148c1.122 0 2.04.918 2.04 2.04v13.94z" fill="#CA9E55"/><path d="M16.5 6.234c-4.012 0-7.276 3.264-7.276 7.276 0 4.012 3.264 7.31 7.276 7.31 4.012 0 7.276-3.264 7.276-7.276 0-4.012-3.264-7.31-7.276-7.31zm0 12.206c-2.72 0-4.93-2.21-4.93-4.93 0-2.72 2.21-4.896 4.93-4.896 2.72 0 4.93 2.21 4.93 4.93 0 2.72-2.21 4.896-4.93 4.896z" fill="#CA9E55"/></svg>
